assets/Accordion/Flat/accordion_flat.svg

<svg width="32" height="32" viewBox="0 0 32 32" fill="none" xmlns="http://www.w3.org/2000/svg">
<path d="M11 10C11 7.79086 12.7909 6 15 6H21C23.2091 6 25 7.79086 25 10V23C25 25.2091 23.2091 27 21 27H15C12.7909 27 11 25.2091 11 23V10Z" fill="#FFCE7C"/>
<path d="M20.1086 5.50188C20.1136 5.22579 20.3415 5.00571 20.6176 5.01033C20.8937 5.01494 21.1135 5.24249 21.1084 5.51859L20.7165 27.0082C20.7115 27.2843 20.4836 27.5044 20.2075 27.4998C19.941 27.4953 19.7269 27.2831 19.717 27.0201C19.6994 27.2654 19.5026 27.4653 19.25 27.4801C18.9744 27.4962 18.7367 27.2859 18.7191 27.0104L17.3482 5.55727C17.3306 5.28174 17.5397 5.04529 17.8154 5.02915C18.091 5.01302 18.3287 5.2233 18.3463 5.49884L19.7172 26.952L19.7174 26.9545L20.1086 5.50188Z" fill="#E19747"/>
<path d="M14.7907 5.22457C14.5176 5.26364 14.3307 5.51628 14.3732 5.78887L17.6926 27.0476C17.7352 27.3202 17.9911 27.5095 18.2642 27.4704C18.5373 27.4313 18.7242 27.1787 18.6816 26.9061L15.3622 5.64739C15.3197 5.37481 15.0638 5.1855 14.7907 5.22457Z" fill="#E19747"/>
<path d="M1.93729 9.20022C1.80368 8.66434 2.12978 8.12161 2.66566 7.988L11.3983 5.8107C11.9342 5.67709 12.4769 6.0032 12.6105 6.53908L17.6909 26.9153C17.8245 27.4512 17.4984 27.9939 16.9625 28.1275L8.22987 30.3048C7.69399 30.4384 7.15126 30.1123 7.01765 29.5764L1.93729 9.20022Z" fill="#F70A8D"/>
<path d="M3.39258 8.83716C3.12465 8.90397 2.96159 9.17533 3.0284 9.44327L3.27032 10.4136C3.33712 10.6815 3.60849 10.8446 3.87643 10.7778L9.21306 9.44718L8.72921 7.50659L3.39258 8.83716ZM3.90064 10.8748C3.6327 10.9416 3.46965 11.2129 3.53645 11.4809L3.77838 12.4512C3.84518 12.7191 4.11655 12.8822 4.38449 12.8154L9.72111 11.4848L9.23727 9.54419L3.90064 10.8748ZM4.04451 13.5185C3.97771 13.2505 4.14076 12.9792 4.4087 12.9124L9.74532 11.5818L10.2292 13.5224L4.89254 14.8529C4.6246 14.9198 4.35324 14.7567 4.28643 14.4888L4.04451 13.5185ZM4.91663 14.95C4.64869 15.0168 4.48564 15.2881 4.55245 15.5561L4.79437 16.5264C4.86117 16.7943 5.13254 16.9574 5.40048 16.8905L10.7371 15.56L10.2533 13.6194L4.91663 14.95ZM5.0605 17.5937C4.9937 17.3257 5.15675 17.0544 5.42469 16.9876L10.7613 15.657L11.2452 17.5976L5.90853 18.9281C5.64059 18.9949 5.36923 18.8319 5.30242 18.564L5.0605 17.5937ZM5.93275 19.0252C5.66481 19.092 5.50175 19.3633 5.56856 19.6313L5.81048 20.6016C5.87729 20.8695 6.14865 21.0325 6.41659 20.9657L11.7532 19.6352L11.2694 17.6946L5.93275 19.0252ZM6.07662 21.6689C6.00981 21.4009 6.17286 21.1296 6.4408 21.0627L11.7774 19.7322L12.2613 21.6728L6.92465 23.0033C6.65671 23.0701 6.38534 22.9071 6.31854 22.6392L6.07662 21.6689ZM6.94874 23.1003C6.6808 23.1672 6.51775 23.4385 6.58455 23.7065L6.82647 24.6768C6.89328 24.9447 7.16464 25.1077 7.43258 25.0409L12.7692 23.7104L12.2854 21.7698L6.94874 23.1003ZM7.09261 25.7441C7.0258 25.4761 7.18885 25.2047 7.45679 25.1379L12.7934 23.8074L13.2773 25.748L7.94064 27.0785C7.6727 27.1453 7.40133 26.9823 7.33453 26.7143L7.09261 25.7441ZM7.96485 27.1755C7.69691 27.2423 7.53386 27.5137 7.60066 27.7816L7.84259 28.7519C7.90939 29.0199 8.18075 29.1829 8.44869 29.1161L13.7853 27.7856L13.3015 25.845L7.96485 27.1755Z" fill="white"/>
<path d="M6.32747 10.2744C6.26067 10.0065 6.42372 9.73509 6.69166 9.66828L9.1174 9.06348L9.35932 10.0338L6.93358 10.6386C6.66564 10.7054 6.39428 10.5423 6.32747 10.2744ZM6.81136 12.2151C6.74455 11.9471 6.9076 11.6758 7.17554 11.609L9.60128 11.0042L9.8432 11.9744L7.41747 12.5793C7.14953 12.6461 6.87816 12.483 6.81136 12.2151ZM8.22276 15.7568C7.95482 15.8236 7.79177 16.0949 7.85857 16.3629C7.92538 16.6308 8.19674 16.7939 8.46468 16.7271L10.8904 16.1223L10.6485 15.152L8.22276 15.7568ZM8.35865 18.2982C8.29185 18.0303 8.4549 17.7589 8.72284 17.6921L11.1486 17.0873L11.3905 18.0576L8.96476 18.6624C8.69682 18.7292 8.42546 18.5662 8.35865 18.2982ZM9.20655 19.7551C8.93861 19.8219 8.77556 20.0932 8.84236 20.3612C8.90917 20.6291 9.18053 20.7922 9.44847 20.7254L11.8742 20.1206L11.6323 19.1503L9.20655 19.7551ZM9.93506 24.4145C9.86825 24.1466 10.0313 23.8752 10.2992 23.8084L12.725 23.2036L12.9669 24.1739L10.5412 24.7787C10.2732 24.8455 10.0019 24.6825 9.93506 24.4145ZM10.7642 25.9087C10.4962 25.9755 10.3332 26.2469 10.4 26.5149C10.4668 26.7828 10.7381 26.9458 11.0061 26.879L13.4318 26.2742L13.1899 25.3039L10.7642 25.9087Z" fill="#321B41"/>
<path d="M23.0171 5.71861C23.0772 5.16961 23.571 4.7733 24.12 4.83342L29.0903 5.37776C29.6393 5.43788 30.0356 5.93168 29.9755 6.48068L27.6893 27.3559C27.6292 27.9049 27.1354 28.3012 26.5864 28.2411L21.6161 27.6967C21.0671 27.6366 20.6708 27.1428 20.7309 26.5938L23.0171 5.71861Z" fill="#F70A8D"/>
<path d="M27.1636 9.19067C27.4381 9.22074 27.685 9.02258 27.7151 8.74808C27.7452 8.47358 27.547 8.22668 27.2725 8.19662C26.998 8.16656 26.7511 8.36471 26.721 8.63921C26.691 8.91371 26.8891 9.16061 27.1636 9.19067ZM25.0666 9.96704C25.3411 9.9971 25.588 9.79895 25.618 9.52445C25.6481 9.24995 25.4499 9.00305 25.1754 8.97299C24.9009 8.94292 24.654 9.14108 24.624 9.41558C24.5939 9.69008 24.7921 9.93698 25.0666 9.96704ZM24.74 12.9492C25.0145 12.9793 25.2614 12.7811 25.2915 12.5066C25.3216 12.2321 25.1234 11.9852 24.8489 11.9552C24.5744 11.9251 24.3275 12.1233 24.2974 12.3978C24.2674 12.6723 24.4655 12.9192 24.74 12.9492ZM24.6383 18.471C24.6082 18.7455 24.3613 18.9436 24.0868 18.9136C23.8123 18.8835 23.6142 18.6366 23.6443 18.3621C23.6743 18.0876 23.9212 17.8895 24.1957 17.9195C24.4702 17.9496 24.6684 18.1965 24.6383 18.471ZM23.7602 21.8958C24.0347 21.9258 24.2816 21.7277 24.3116 21.4532C24.3417 21.1787 24.1436 20.9318 23.8691 20.9017C23.5946 20.8716 23.3477 21.0698 23.3176 21.3443C23.2875 21.6188 23.4857 21.8657 23.7602 21.8958ZM23.4336 24.8779C23.7081 24.908 23.955 24.7098 23.9851 24.4353C24.0152 24.1608 23.817 23.9139 23.5425 23.8839C23.268 23.8538 23.0211 24.052 22.9911 24.3265C22.961 24.601 23.1591 24.8479 23.4336 24.8779ZM24.9648 15.4888C24.9348 15.7633 24.6879 15.9615 24.4134 15.9314C24.1389 15.9013 23.9407 15.6544 23.9708 15.3799C24.0009 15.1054 24.2477 14.9073 24.5223 14.9373C24.7968 14.9674 24.9949 15.2143 24.9648 15.4888ZM26.082 23.659C26.052 23.9335 25.8051 24.1316 25.5306 24.1016C25.2561 24.0715 25.0579 23.8246 25.088 23.5501C25.118 23.2756 25.3649 23.0774 25.6394 23.1075C25.9139 23.1376 26.1121 23.3845 26.082 23.659ZM25.8572 21.1194C26.1317 21.1494 26.3786 20.9513 26.4087 20.6768C26.4388 20.4023 26.2406 20.1554 25.9661 20.1253C25.6916 20.0953 25.4447 20.2934 25.4146 20.5679C25.3846 20.8424 25.5827 21.0893 25.8572 21.1194ZM26.7352 17.6946C26.7052 17.9691 26.4583 18.1673 26.1838 18.1372C25.9093 18.1071 25.7111 17.8602 25.7412 17.5857C25.7712 17.3112 26.0181 17.1131 26.2926 17.1432C26.5671 17.1732 26.7653 17.4201 26.7352 17.6946ZM26.5104 15.155C26.7849 15.1851 27.0318 14.9869 27.0619 14.7124C27.092 14.4379 26.8938 14.191 26.6193 14.161C26.3448 14.1309 26.0979 14.3291 26.0678 14.6036C26.0378 14.8781 26.2359 15.125 26.5104 15.155ZM27.3884 11.7303C27.3584 12.0048 27.1115 12.2029 26.837 12.1729C26.5625 12.1428 26.3643 11.8959 26.3944 11.6214C26.4244 11.3469 26.6713 11.1487 26.9458 11.1788C27.2203 11.2089 27.4185 11.4558 27.3884 11.7303Z" fill="white"/>
</svg>

<svg xmlns="http://www.w3.org/2000/svg" width="32" height="32" fill="none"><path fill="#FFCE7C" d="M11 10a4 4 0 0 1 4-4h6a4 4 0 0 1 4 4v13a4 4 0 0 1-4 4h-6a4 4 0 0 1-4-4V10Z"/><path fill="#E19747" d="M20.109 5.502a.5.5 0 0 1 1 .017l-.393 21.49a.5.5 0 0 1-.999.011.497.497 0 0 1-.467.46.503.503 0 0 1-.53-.47L17.347 5.557a.497.497 0 0 1 .467-.528.503.503 0 0 1 .531.47l1.371 21.453v.002l.392-21.452ZM14.79 5.225a.492.492 0 0 0-.417.564l3.32 21.259a.507.507 0 0 0 .571.422.492.492 0 0 0 .418-.564l-3.32-21.259a.507.507 0 0 0-.571-.422Z"/><path fill="#F70A8D" d="M1.937 9.2a1 1 0 0 1 .729-1.212l8.732-2.177a1 1 0 0 1 1.213.728l5.08 20.376a1 1 0 0 1-.729 1.213L8.23 30.305a1 1 0 0 1-1.212-.729L1.938 9.2Z"/><path fill="#fff" d="M3.393 8.837a.5.5 0 0 0-.365.606l.242.97a.5.5 0 0 0 .606.365l5.337-1.33-.484-1.941-5.336 1.33Zm.508 2.038a.5.5 0 0 0-.365.606l.242.97a.5.5 0 0 0 .606.364l5.337-1.33-.484-1.94-5.336 1.33Zm.144 2.643a.5.5 0 0 1 .364-.606l5.336-1.33.484 1.94-5.336 1.33a.5.5 0 0 1-.607-.363l-.241-.97Zm.872 1.432a.5.5 0 0 0-.365.606l.242.97a.5.5 0 0 0 .606.364l5.337-1.33-.484-1.94-5.336 1.33Zm.144 2.644a.5.5 0 0 1 .364-.606l5.336-1.331.484 1.94-5.336 1.331a.5.5 0 0 1-.607-.364l-.241-.97Zm.872 1.431a.5.5 0 0 0-.364.606l.241.97a.5.5 0 0 0 .607.365l5.336-1.33-.484-1.941-5.336 1.33Zm.144 2.644a.5.5 0 0 1 .364-.606l5.336-1.33.484 1.94-5.336 1.33a.5.5 0 0 1-.606-.364l-.242-.97Zm.872 1.431a.5.5 0 0 0-.364.606l.241.97a.5.5 0 0 0 .607.365l5.336-1.33-.484-1.941L6.95 23.1Zm.144 2.644a.5.5 0 0 1 .364-.606l5.336-1.33.484 1.94-5.336 1.33a.5.5 0 0 1-.606-.364l-.242-.97Zm.872 1.431a.5.5 0 0 0-.364.607l.242.97a.5.5 0 0 0 .606.364l5.336-1.33-.483-1.941-5.337 1.33Z"/><path fill="#321B41" d="M6.327 10.274a.5.5 0 0 1 .365-.606l2.425-.605.242.97-2.425.606a.5.5 0 0 1-.607-.365Zm.484 1.941a.5.5 0 0 1 .365-.606l2.425-.605.242.97-2.426.605a.5.5 0 0 1-.606-.364Zm1.412 3.542a.5.5 0 1 0 .242.97l2.425-.605-.242-.97-2.425.605Zm.136 2.541a.5.5 0 0 1 .364-.606l2.426-.605.242.97-2.426.605a.5.5 0 0 1-.606-.364Zm.848 1.457a.5.5 0 1 0 .241.97l2.426-.604-.242-.97-2.425.604Zm.728 4.66a.5.5 0 0 1 .364-.607l2.426-.604.242.97-2.426.605a.5.5 0 0 1-.606-.364Zm.83 1.494a.5.5 0 0 0 .241.97l2.426-.605-.242-.97-2.426.605Z"/><path fill="#F70A8D" d="M23.017 5.719a1 1 0 0 1 1.103-.886l4.97.545a1 1 0 0 1 .886 1.103l-2.287 20.875a1 1 0 0 1-1.103.885l-4.97-.544a1 1 0 0 1-.885-1.103l2.286-20.875Z"/><path fill="#fff" d="M27.164 9.19a.5.5 0 1 0 .108-.993.5.5 0 0 0-.108.994Zm-2.097.777a.5.5 0 1 0 .109-.994.5.5 0 0 0-.11.994Zm-.327 2.982a.5.5 0 1 0 .109-.994.5.5 0 0 0-.109.994Zm-.102 5.522a.5.5 0 1 1-.994-.11.5.5 0 0 1 .994.11Zm-.878 3.425a.5.5 0 1 0 .109-.994.5.5 0 0 0-.109.994Zm-.326 2.982a.5.5 0 1 0 .108-.994.5.5 0 0 0-.108.994Zm1.53-9.39a.5.5 0 1 1-.993-.108.5.5 0 0 1 .994.109Zm1.118 8.171a.5.5 0 1 1-.994-.109.5.5 0 0 1 .994.109Zm-.225-2.54a.5.5 0 1 0 .109-.994.5.5 0 0 0-.109.994Zm.878-3.424a.5.5 0 1 1-.994-.109.5.5 0 0 1 .994.109Zm-.225-2.54a.5.5 0 1 0 .11-.994.5.5 0 0 0-.11.994Zm.878-3.425a.5.5 0 1 1-.994-.108.5.5 0 0 1 .994.108Z"/></svg>
